X:1
T: Dark Hair'd Mary
C:
R:Strathspey
Q: 128
K:Em
M:4/4
L:1/16
|:a2|AAA2 A3B G3A B3d|eA3 A3B dcBA G3B|AAA2 A3B G3A B3d|eA3 A3B GE3 E2e2|
AAA2 A3B G3A B3d|eA3 A3B dcBA G3B|AAA2 A3B G3A B3d|eA3 A3B GE3 E2e2|
ge3 e3g d3e d3B|ge3 e3f g3a b3a|gb3 eg3 dg3 Bb3|eA3 A3B GE3 E2a2|
ge3 e3g d3e d3B|ge3 e3f g3a b3a|gb3 eg3 dg3 Bb3|eA3 A3B GE3 E2:|
